X:1
T:Bob Taylor's -- Clog
R:clog
B:Ryan's Mammoth Collection
N: 161 957
Z: Contributed by Ray Davies,  ray:davies99.freeserve.co.uk
M:2/4
L:1/16
K:F
u(c>.B)|\
(A>.c)(f>.c) kA2u(c>.B) | A>cf>c ka2g>f |\
 e>cg>e b>ge>g | f>ag>f e>dc>B |
A>cf>c kA2c>B | A>cf>c ka2g>f | e>cg>e b>ge>g |\
 f2a2f2 :|
|:u(g>.a)|\
v(b>.g)(b>.g) "^SEGUE"g>eg>e | a>fa>f c>Ac>A |\
 B>cd>e f>ga>b | a2g2 {a}(g^fg)a |
vb>gb>g g>eg>e | a>fa>f c>Ac>A | d>c=B>c "4"e>dB>G |\
 F2a2f2 :|
